X: 17223
T: Her Long Dark Hair Flowing Down Her Back
R: hornpipe
M: 4/4
K: Dmajor
|:de|fedf efdA|BAFB A2de|fedf e2de|fbba b2ag|
fedf efdA|BAFB ABde|fedf edBA|B2BA B2:|

